icons/x-circle-16.svg

<svg xmlns="http://www.w3.org/2000/svg" width="16" height="16" viewBox="0 0 16 16"><path d="M2.344 2.343h-.001a8 8 0 0111.314 11.314A8.002 8.002 0 01.234 10.089a8 8 0 012.11-7.746zm1.06 10.253a6.5 6.5 0 109.108-9.275 6.5 6.5 0 00-9.108 9.275zM6.03 4.97L8 6.94l1.97-1.97a.749.749 0 011.275.326.749.749 0 01-.215.734L9.06 8l1.97 1.97a.749.749 0 01-.326 1.275.749.749 0 01-.734-.215L8 9.06l-1.97 1.97a.749.749 0 01-1.275-.326.749.749 0 01.215-.734L6.94 8 4.97 6.03a.751.751 0 01.018-1.042.751.751 0 011.042-.018z"/></svg>

<svg xmlns="http://www.w3.org/2000/svg" width="16" height="16" viewBox="0 0 16 16">
  <defs/>
  <path d="M2.344,2.343 L2.343,2.343 C5.467,-0.781 10.533,-0.781 13.657,2.343 C16.781,5.467 16.781,10.533 13.657,13.657 C11.64,15.698 8.684,16.503 5.911,15.766 C3.138,15.029 0.971,12.862 0.234,10.089 C-0.503,7.315 0.302,4.36 2.344,2.343 Z M3.404,12.596 C5.949,15.095 10.032,15.076 12.554,12.554 C15.076,10.032 15.095,5.949 12.596,3.404 C10.959,1.737 8.553,1.076 6.295,1.674 C4.036,2.272 2.272,4.036 1.674,6.295 C1.076,8.553 1.737,10.959 3.404,12.596 Z M6.03,4.97 L8,6.94 L9.97,4.97 C10.157,4.769 10.439,4.687 10.704,4.755 C10.97,4.822 11.178,5.03 11.245,5.296 C11.313,5.561 11.231,5.843 11.03,6.03 L9.06,8 L11.03,9.97 C11.231,10.157 11.313,10.439 11.245,10.704 C11.178,10.97 10.97,11.178 10.704,11.245 C10.439,11.313 10.157,11.231 9.97,11.03 L8,9.06 L6.03,11.03 C5.843,11.231 5.561,11.313 5.296,11.245 C5.03,11.178 4.822,10.97 4.755,10.704 C4.687,10.439 4.769,10.157 4.97,9.97 L6.94,8 L4.97,6.03 C4.695,5.734 4.703,5.274 4.988,4.988 C5.274,4.703 5.734,4.695 6.03,4.97 Z"/>
</svg>
